svgs/tumblr.svg

<svg xmlns="http://www.w3.org/2000/svg" viewBox="0 0 192 192"><path d="M62.808 16.5h61.603v23.862h36.308v41.525h-36.308v45.849c0 3.834 4.236 6.078 10.53 5.914 10.711-.448 22.511-1.142 22.511-1.142l8.048 41.81a287.595 287.595 0 0 1-41.331.776c-16.903-1.871-32.33-7.64-43.63-16.317-10.988-8.854-17.236-19.951-17.731-31.49v-45.4H26.5V40.362h36.308Z" fill="none" stroke="#000" stroke-width="12" stroke-linecap="round" stroke-linejoin="round"/></svg>

<svg
    xmlns="http://www.w3.org/2000/svg"
    viewBox="0 0 192 192"
    id="vector">
    <path
        id="path"
        d="M 62.808 16.5 L 124.411 16.5 L 124.411 40.362 L 160.719 40.362 L 160.719 81.887 L 124.411 81.887 L 124.411 127.736 C 124.411 131.57 128.647 133.814 134.941 133.65 C 145.652 133.202 157.452 132.508 157.452 132.508 L 165.5 174.318 C 151.803 175.567 137.948 175.827 124.169 175.094 C 107.266 173.223 91.839 167.454 80.539 158.777 C 69.551 149.923 63.303 138.826 62.808 127.287 L 62.808 81.887 L 26.5 81.887 L 26.5 40.362 L 62.808 40.362 Z"
        fill="none"
        stroke="#000000"
        stroke-width="12"
        stroke-linecap="round"
        stroke-linejoin="round"/>
</svg>
